!!!!SEGMENT: pl-lzu--m-15111--001-046_noskowski-zygmunt--spiewnik-dla-dzieci-op-34-46-mlocka.krn
!!!cenid: 18xx:4743
!!!COM: Noskowski, Zygmunt
!!!COM-rismID: pe106604
!!!CDT: 1846/05/02-1909/07/23
!!!CNT: Polish
!!!GTL: Śpiewnik dla dzieci, op. 34
!!!OTL: 46. Młocka
!!!OMV: 046
!!!PDT: 1890
!!!AGN: Secular; Song; Children
!!!YEC: Copyright 2022 Narodowy Instytut Fryderyka Chopina (https://polishscores.org)
!!!YEM: License CC-BY-4.0 (https://creativecommons.org/licenses/by/4.0)
!!!SMS-siglum: PL-LŹu
!!!SMS-shelfmark: M 15111
!!!SMS-variant:
!!!SMS-altvar:
!!!SMS-shelfwork: 001-046 G
!!!NIFC-rismSourceID: 1001234040
!!!NIFC-rismChildID: 1001234040
!!!NIFC-islandoraID: pl-lzu:5455
!!!URL-pdf-islandora: https://repozytorium.nifc.pl/islandora/object/pl-lzu%3A5455/datastream/PDF/view
!!!URL-scan: https://polish.musicsources.pl/pl/lokalizacje/galeria/druki-muzyczne/23228/57 @EN{Scan on Polish Music Sources Website} @PL{Skany w portalu Dziedzictwo Muzyki Polskiej w otwartym dostępie}
!!!IIIF:
!!!ONB-nifc:
!!!AIN: 1 piano 1 vox
!!!key:
!!!OMD: Allegro.
**kern	**kern	**dynam	**kern	**text	**text	**dynam
*part2	*part2	*part2	*part1	*part1	*part1	*part1
*staff3	*staff2	*staff2/3	*staff1	*staff1	*staff1	*staff1
*I"[Piano]	*I"[Piano]	*	*I"[Voice]	*	*	*
*I'pf	*I'pf	*	*I'V	*	*	*
*Ipiano	*Ipiano	*	*Ivox	*	*	*
*ICklav	*ICklav	*	*ICvox	*	*	*
*IGacmp	*IGacmp	*	*IGsolo	*	*	*
*>[A,B,B,C]	*>[A,B,B,C]	*>[A,B,B,C]	*>[A,B,B,C]	*>[A,B,B,C]	*>[A,B,B,C]	*>[A,B,B,C]
*>A	*>A	*>A	*>A	*>A	*>A	*>A
*clefF4	*clefG2	*	*I	*	*	*
*k[f#]	*k[f#]	*	*k[f#]	*	*	*
*G:	*G:	*	*G:	*	*	*
*M2/4	*M2/4	*	*M2/4	*	*	*
=1	=1	=1	=1	=1	=1	=1
!	!LO:TX:a:t=Żwawo.	!LO:DY:rj	!	!	!	!
(8qqc#X/	(8qqcc#X/	f	.	.	.	.
8d^\L)	8dd^/L)	.	2r	.	.	.
8D'\J	8d'/J	.	.	.	.	.
8A'\L	8a'/L	.	.	.	.	.
8D'\J	8d'/J	.	.	.	.	.
=2	=2	=2	=2	=2	=2	=2
(8qc#X/	(8qcc#X/	.	.	.	.	.
8d^\L)	8dd^/L)	.	2r	.	.	.
8D'\J	8d'/J	.	.	.	.	.
8A'\L	8a'/L	.	.	.	.	.
8D'\J	8d'/J	.	.	.	.	.
=3	=3	=3	=3	=3	=3	=3
(8qc#X/	(8qcc#X/	.	.	.	.	.
8d^\L)	8dd^/L)	.	2r	.	.	.
8D'\J	8d'/J	.	.	.	.	.
8A'\L	8a'/L	.	.	.	.	.
8D'\J	8d'/J	.	.	.	.	.
=4	=4	=4	=4	=4	=4	=4
8A'\L	8a'/L	.	2r	.	.	.
8D'\J	8d'/J	.	.	.	.	.
(8qG#X/	(8qg#X/	.	.	.	.	.
8A^\L)	8a^/L)	.	.	.	.	.
8D'\J	8d'/J	.	.	.	.	.
!!LO:LB:g=original
=5!|:	=5!|:	=5!|:	=5!|:	=5!|:	=5!|:	=5!|:
*>B	*>B	*>B	*>B	*>B	*>B	*>B
*	*	*	*	*v:1	*v:2	*
!	!LO:TX:b:i:t=marcato	!	!	!	!	!LO:DY:rj
8BL 8Gn\	8ddL 8d/	.	8dd\	Łu-	Łu-	f
8BJ 8G\	8gJ 8d/	.	8g/	-pu,	-pu,	.
8cL 8A 8G\	8aL 8d/	.	8a/	cu-	cu-	.
8cJ 8A 8G\	8f#J 8d/	.	8f#/	-pu!	-pu!	.
=6	=6	=6	=6	=6	=6	=6
8BL 8G\	8ddL 8d/	.	8dd\	łu-	łu-	.
8BJ 8G\	8gJ 8d/	.	8g/	-pu,	-pu,	.
8cL 8A 8G\	8aL 8d/	.	8a/	cu-	cu-	.
8cJ 8A 8G\	8f#J 8d/	.	8f#,/	-pu!	-pu!	.
=7	=7	=7	=7	=7	=7	=7
8BL 8G\	8gL 8d/	.	8g/	Ce-	Tę-	.
8BJ 8G\	8bJ 8g 8d/	.	8b/	-pa-	-go	.
8cL 8A 8G\	(16aLL 16f# 16d/	.	(16a/LL	-mi	bij-	.
.	16b/J)	.	16b/JJ)	.	.	.
8cJ 8A 8G\	8ccJ 8f# 8d/	.	8cc\	w sto-	-my	.
=8	=8	=8	=8	=8	=8	=8
8BL 8G\	8b 8g 8d/	.	(8b\	-do-	w sno-	.
8B 8G\	4ee 4g 4e/	.	4ee\)	.	.	.
8B 8G\	.	.	.	.	.	.
8BJ 8G\	8dd 8g 8d/	.	8dd,\	-le,	-py!	.
!!LO:PB:g=original
=9	=9	=9	=9	=9	=9	=9
*	*	*	*	*v:1	*v:2	*
!	!LO:TX:a:i:t=wolniej	!LO:DY:rj	!LO:TX:a:i:t=Meno mosso	!	!	!LO:DY:rj
8BL 8E\	8cc#XL 8g 8c#X/	p	8cc#X\	Po-	Bę-	p
8BJ 8E\	8bJ 8g 8c#/	.	8b\	-czer-	-dziem	.
8A#XL 8E\	8a#XL 8f# 8c#/	.	8a#X/	-nia-	mie-	.
8A#J 8E\	8cc#J 8f# 8c#/	.	8cc#\	-ło,	-li	.
=10	=10	=10	=10	=10	=10	=10
8BL 8D\	8bL 8f# 8d/	.	8b/	po-	tej	.
8F# 8C#X\	8a#XJ 8e/	.	8a#X/	-smu-	psze-	.
8F# 8BB\	8bL 8d/	.	8b/	-tnia-	-ni-	.
8F#J 8BB\	8f#J 8d/	.	8f#/	-ło	-czki	.
=11	=11	=11	=11	=11	=11	=11
8GL 8AA\	8anL 8c#X/	>	8an/	Na-	Po	>
8G 8AA\	8aJ 8c#/	.	8a/	-sze	dwa	.
8G 8AA\	8.bL 8.c#/	.	8.b/	czy-	kor-	.
8GJ 8AA\	.	]	.	.	.	]
.	16eJk 16c#/	.	16e/	-ste	-ce	.
=12	=12	=12	=12	=12	=12	=12
8AL 8D\	4f# 4d/	.	4f#/	po-	z ko-	.
8A 8D\	.	.	.	.	.	.
8F# 8D\	8d 8A/	.	8d/	-le.	-py.	.
8D\J	8r	.	8r	.	.	.
!!LO:LB:g=original
=13	=13	=13	=13	=13	=13	=13
!	!LO:TX:a:i:t=Tempo I.	!	!	!	!	!
(8qc#X/	(8qcc#X/	f	.	.	.	.
8d^\L)	8dd^/L)	.	2r	.	.	.
8D\J	8d/J	.	.	.	.	.
8A\L	8a^/L	.	.	.	.	.
8D\J	8d/J	.	.	.	.	.
=14	=14	=14	=14	=14	=14	=14
8A\L	8a/L	.	2r	.	.	.
8D\J	8d/J	.	.	.	.	.
(8qG#X/	(8qg#X/	.	.	.	.	.
8A^\L)	8a^/L)	.	.	.	.	.
8D\J	8d/J	.	.	.	.	.
=15:|!	=15:|!	=15:|!	=15:|!	=15:|!	=15:|!	=15:|!
*>C	*>C	*>C	*>C	*>C	*>C	*>C
*	*	*	*	*v:3	*	*
!	!	!	!	!	!	!LO:DY:rj
8BL 8Gn\	8ddL 8d/	.	8dd\	Łu-	.	f
!	!LO:TX:c:i:t=marcato	!	!	!	!	!
.	.	.	.	.	.	.
8BJ 8G\	8gJ 8d/	.	8g/	-pu!	.	.
8cL 8A 8G\	8aL 8d/	.	8a/	cu-	.	.
8cJ 8A 8G\	8f#J 8d/	.	8f#/	-pu!	.	.
=16	=16	=16	=16	=16	=16	=16
8BL 8G\	8ddL 8d/	.	8dd\	łu-	.	.
8BJ 8G\	8gJ 8d/	.	8g/	-pu,	.	.
8cL 8A 8G\	8aL 8d/	.	8a/	cu-	.	.
8cJ 8A 8G\	8f#J 8d/	.	8f#,/	-pu!	.	.
!!LO:LB:g=original
=17	=17	=17	=17	=17	=17	=17
*	*	*	*	*v:3	*	*
!	!	!	!	!	!	!LO:DY:rj
8BL 8G\	8gL 8d/	.	8g/	Aż	.	f
8BJ 8G\	8bJ 8g 8d/	.	8b/	rę-	.	.
8cL 8A 8G\	16aLL 16f# 16d/	.	16a/LL	-ce	.	.
.	16b/J	.	16b/JJ	.	.	.
8cJ 8A 8G\	8ccJ 8f# 8d/	.	8cc\	u-	.	.
=18	=18	=18	=18	=18	=18	=18
8BL 8G\	8b 8g 8d/	.	(8b\	-sta-	.	.
.	.	>	.	.	.	.
8BJ 8G\	4ee 4g 4e/	.	4ee\)	.	.	.
8BL 8G 8Fn\	.	.	.	.	.	.
8BJ 8G 8F\	8dd 8g 8d/	]	8dd\	-ły,	.	.
=19	=19	=19	=19	=19	=19	=19
!	!LO:TX:a:i:t=wolniej	!LO:DY:rj	!LO:TX:a:i:t=Piu lento	!	!	!LO:DY:rj
8GL 8E\	8.ccL 8.g 8.c/	p	8.cc\	Ta	.	p
8E\J	.	.	.	.	.	.
.	16b/Jk	.	16b\	psze-	.	.
8E-X\L	8aL 8g 8c/	.	8a/	-ni-	.	.
8D\J	8ccJ 8f#X 8c/	.	8cc\	-czka,	.	.
=20	=20	=20	=20	=20	=20	=20
8D#X/L	8bL 8f# 8B/	.	8b/	san-	.	.
8BB/J	8aJ 8d#X 8B/	.	8a/	-do-	.	.
8E\L	8gL 8e 8B/	.	8g/	-mier-	.	.
8G\J	8eJ 8B/	.	8e,/	-ka	.	.
!!LO:PB:g=original
=21	=21	=21	=21	=21	=21	=21
*	*	*	*	*v:3	*	*
8A\L	8f#L 8d 8cn/	.	8f#/	Sły-	.	.
8A 8F#\	8d 8c/	.	8d/	-nie	.	<
8A 8D\	8f# 8d/	.	8f#/	na	.	.
8C\J	8aJ 8f# 8d/	.	8a/	świat	.	.
=22	=22	=22	=22	=22	=22	=22
8BB/L	4dd 4g 4d/	<	4dd\	ca-	.	.
8BB/J	.	.	.	.	.	.
8E\L	4b 4g#X 4d/	[	8b\	-ły!	.	.
8E\J	.	.	8r	.	.	.
=23	=23	=23	=23	=23	=23	=23
!	!	!LO:DY:rj	!	!	!	!LO:DY:rj
4E 4AA/	8.aL 8.c/	f	8.a/	Ta	.	f
.	16b/Jk	.	16b/	psze-	.	.
8r	8cc/L	.	8cc\	-ni-	.	.
8F# 8C\	8aJ 8d/	.	8a/	-czka,	.	.
=24	=24	=24	=24	=24	=24	=24
8G 8BB\	8f#L 8d/	.	8f#/	san-	.	.
8r	8g/	.	8g/	-do-	.	.
8r	8b/	.	8b\	-mier-	.	.
8AA/	8eeJ 8cc#X 8g/	.	8ee,\	-ka	.	.
!!LO:LB:g=original
=25	=25	=25	=25	=25	=25	=25
*	*	*	*	*v:3	*	*
8BB/L	8ddL 8g 8d/	.	8dd\	Sły-	.	.
8C/	8g 8e 8cn/	.	8g/	-nie	.	.
8AA/	8a 8e 8c/	.	8a/	na	.	<
8D/J	8f#J 8d 8c/	.	8f#/	świat	.	.
=26	=26	=26	=26	=26	=26	=26
8DL 8GG/	4g 4d 4c^/	.	4g/	ca-	.	.
8D 8GG/	.	.	.	.	.	.
8D 8GG/	4g 4d 4B^/	.	8g/	-ły!	.	.
8DJ 8GG/	.	.	8r	.	.	.
=27	=27	=27	=27	=27	=27	=27
8DL 8GG/	4g 4d 4B^/	.	2r	.	.	.
8D 8GG/	.	.	.	.	.	.
8D 8GG/	4g 4d 4B^/	.	.	.	.	.
8DJ 8GG/	.	.	.	.	.	.
=28	=28	=28	=28	=28	=28	=28
2D 2GG;/	2g 2d 2B;/	.	2r;	.	.	.
==	==	==	==	==	==	==
*-	*-	*-	*-	*-	*-	*-
!!!system-decoration: p1{p2}
!!!RDF**kern: > = above
!!!RDF**kern: < = below
!!!ENC: Andrzej Gręziak
!!!END: 2025-03-07
!!!ENC: Marta Lawrence
!!!END: 2025-03-25
